symbols/web/folder/materialsymbolssharp/folder_wght100_20px.svg

<svg xmlns="http://www.w3.org/2000/svg" height="20" width="20"><path d="M2.75 5.25h6.333l.917.917h7.25v9.416H2.75Zm.667.667v9h13.166V6.833H9.729l-.917-.916Zm0 9v-9 9Z"/></svg>

<svg xmlns="http://www.w3.org/2000/svg" height="20" width="20"><path d="M2.75 5.25H9.083L10 6.167H17.25V15.583H2.75ZM3.417 5.917V14.917H16.583V6.833H9.729L8.812 5.917ZM3.417 14.917V5.917V6.833V14.917Z"/></svg>
